svgs/tim.svg

<svg width="192" height="192" viewBox="0 0 192 192" fill="none" xmlns="http://www.w3.org/2000/svg">
<g clip-path="url(#clip0_314_245)">
<path d="M30 33C30 31.3431 31.3431 30 33 30H159C160.657 30 162 31.3431 162 33V57C162 58.6569 160.657 60 159 60H33C31.3431 60 30 58.6569 30 57V33Z" stroke="black" stroke-width="12"/>
<path d="M30 84C30 82.3431 31.3431 81 33 81H79C80.6569 81 82 82.3431 82 84V108C82 109.657 80.6569 111 79 111H33C31.3431 111 30 109.657 30 108V84Z" stroke="black" stroke-width="12"/>
<path d="M110 84C110 82.3431 111.343 81 113 81H159C160.657 81 162 82.3431 162 84V108C162 109.657 160.657 111 159 111H113C111.343 111 110 109.657 110 108V84Z" stroke="black" stroke-width="12"/>
<path d="M30 135C30 133.343 31.3431 132 33 132H79C80.6569 132 82 133.343 82 135V159C82 160.657 80.6569 162 79 162H33C31.3431 162 30 160.657 30 159V135Z" stroke="black" stroke-width="12"/>
<path d="M110 135C110 133.343 111.343 132 113 132H159C160.657 132 162 133.343 162 135V159C162 160.657 160.657 162 159 162H113C111.343 162 110 160.657 110 159V135Z" stroke="black" stroke-width="12"/>
</g>
<defs>
<clipPath id="clip0_314_245">
<rect width="192" height="192" fill="white"/>
</clipPath>
</defs>
</svg>

<svg width="192" height="192" viewBox="0 0 192 192" fill="none" xmlns="http://www.w3.org/2000/svg"><g clip-path="url(#a)" stroke="#000" stroke-width="12"><path d="M30 33a3 3 0 0 1 3-3h126a3 3 0 0 1 3 3v24a3 3 0 0 1-3 3H33a3 3 0 0 1-3-3V33ZM30 84a3 3 0 0 1 3-3h46a3 3 0 0 1 3 3v24a3 3 0 0 1-3 3H33a3 3 0 0 1-3-3V84ZM110 84a3 3 0 0 1 3-3h46a3 3 0 0 1 3 3v24a3 3 0 0 1-3 3h-46a3 3 0 0 1-3-3V84ZM30 135a3 3 0 0 1 3-3h46a3 3 0 0 1 3 3v24a3 3 0 0 1-3 3H33a3 3 0 0 1-3-3v-24ZM110 135a3 3 0 0 1 3-3h46a3 3 0 0 1 3 3v24a3 3 0 0 1-3 3h-46a3 3 0 0 1-3-3v-24Z"/></g><defs><clipPath id="a"><path fill="#fff" d="M0 0h192v192H0z"/></clipPath></defs></svg>
